svg/transport/rudder_fill.svg

<?xml version="1.0" encoding="UTF-8"?>
<svg width="24px" height="24px" viewBox="0 0 24 24" version="1.1" xmlns="http://www.w3.org/2000/svg" xmlns:xlink="http://www.w3.org/1999/xlink">
    <title>rudder_fill</title>
    <g id="Icon" stroke="none" stroke-width="1" fill="none" fill-rule="evenodd">
        <g id="Transport" transform="translate(-912.000000, -240.000000)">
            <g id="rudder_fill" transform="translate(912.000000, 240.000000)">
                <path d="M24,0 L24,24 L0,24 L0,0 L24,0 Z M12.5935,23.2578 L12.5819,23.2595 L12.5109,23.295 L12.4919,23.2987 L12.4767,23.295 L12.4057,23.2595 C12.3958,23.2564 12.387,23.259 12.3821,23.2649 L12.378,23.2758 L12.3609,23.7031 L12.3659,23.7235 L12.3769,23.7357 L12.4805,23.8097 L12.4953,23.8136 L12.5071,23.8097 L12.6107,23.7357 L12.6233,23.7197 L12.6267,23.7031 L12.6096,23.2758 C12.6076,23.2657 12.601,23.2593 12.5935,23.2578 Z M12.8584,23.1453 L12.8445,23.1473 L12.6598,23.2397 L12.6499,23.2499 L12.6472,23.2611 L12.6651,23.6906 L12.6699,23.7034 L12.6784,23.7105 L12.8793,23.8032 C12.8914,23.8069 12.9022,23.803 12.9078,23.7952 L12.9118,23.7812 L12.8777,23.1665 C12.8753,23.1546 12.8674,23.147 12.8584,23.1453 Z M12.143,23.1473 C12.1332,23.1424 12.1222,23.1453 12.1156,23.1526 L12.1099,23.1665 L12.0758,23.7812 C12.0751,23.7927 12.0828,23.8019 12.0926,23.8046 L12.1083,23.8032 L12.3092,23.7105 L12.3186,23.7024 L12.3225,23.6906 L12.3404,23.2611 L12.3372,23.2485 L12.3278,23.2397 L12.143,23.1473 Z" id="MingCute" fill-rule="nonzero"></path>
                <path d="M12,2 C12.51285,2 12.9355092,2.38604429 12.9932725,2.88337975 L13,3 L13,4.06189 C14.3483385,4.23002846 15.5924686,4.73372101 16.6462658,5.4867564 L16.9057,5.68016 L17.6569,4.92896 C18.0474,4.53843 18.6806,4.53843 19.0711,4.92896 C19.4315615,5.28944 19.4592893,5.85667503 19.1542834,6.2489635 L19.0711,6.34317 L18.3199,7.09437 C19.1138385,8.11577308 19.6657036,9.3347629 19.8891346,10.6651361 L19.9381,11 L21,11 C21.5523,11 22,11.4477 22,12 C22,12.51285 21.613973,12.9355092 21.1166239,12.9932725 L21,13 L19.9381,13 C19.7700077,14.3483385 19.2662846,15.5924686 18.5132914,16.6461872 L18.3199,16.9056 L19.071,17.6568 C19.4616,18.0473 19.4616,18.6805 19.071,19.071 C18.7105385,19.4314615 18.1433645,19.4591893 17.7510224,19.1541834 L17.6568,19.071 L16.9057,18.3198 C15.8842231,19.1138308 14.6652361,19.665703 13.3348638,19.8891345 L13,19.9381 L13,21 C13,21.5523 12.5523,22 12,22 C11.48715,22 11.0644908,21.613973 11.0067275,21.1166239 L11,21 L11,19.9381 C9.65166154,19.7700077 8.40752284,19.2662846 7.35378727,18.5132914 L7.09437,18.3199 L6.34315,19.0711 C5.95263,19.4616 5.31946,19.4616 4.92894,19.0711 C4.56846,18.7106385 4.54073077,18.1433793 4.84575231,17.7511027 L4.92894,17.6569 L5.68016,16.9057 C4.88616615,15.8842231 4.33433089,14.6652361 4.11086543,13.3348638 L4.06189,13 L3,13 C2.44772,13 2,12.5523 2,12 C2,11.48715 2.38604429,11.0644908 2.88337975,11.0067275 L3,11 L4.06189,11 C4.23002846,9.65164308 4.73371249,8.40750296 5.48675443,7.35375942 L5.68016,7.09434 L4.92891,6.34309 C4.53838,5.95257 4.53838,5.3194 4.92891,4.92888 C5.28939,4.5684 5.85662503,4.54067077 6.2489135,4.84569231 L6.34312,4.92888 L7.09437,5.68013 C8.11577308,4.88614538 9.3347629,4.33432787 10.6651361,4.11086509 L11,4.06189 L11,3 C11,2.44772 11.4477,2 12,2 Z M10.7066,14.7076 L8.52348,16.8908 C9.24641,17.4056 10.0884,17.7641 11,17.917 L11,14.8293 C10.8996,14.7938 10.8017,14.7532 10.7066,14.7076 Z M13.2934,14.7076 L13.1486875,14.7722375 L13.1486875,14.7722375 L13,14.8293 L13,17.917 C13.8104,17.7810889 14.5656494,17.4827284 15.2312636,17.0564733 L15.4766,16.8907 L13.2934,14.7076 Z M9.17071,13 L6.08296,13 C6.23591,13.9117 6.59444,14.7536 7.10927,15.4766 L9.29238,13.2934 C9.24685,13.1983 9.20618,13.1004 9.17071,13 Z M17.917,13 L14.8293,13 C14.7938,13.1004 14.7532,13.1983 14.7076,13.2934 L16.8908,15.4765 C17.4056,14.7536 17.7641,13.9116 17.917,13 Z M16.8908,8.52348 L14.7076,10.7066 L14.7722375,10.8513125 L14.7722375,10.8513125 L14.8293,11 L17.917,11 C17.7810889,10.1896889 17.4827284,9.43437827 17.0565435,8.76879846 L16.8908,8.52348 Z M7.10926,8.52345 C6.59444,9.24639 6.23591,10.0883 6.08296,11 L9.17071,11 C9.20618,10.8996 9.24685,10.8017 9.29238,10.7066 L7.10926,8.52345 Z M13,6.08296 L13,9.17071 C13.1004,9.20618 13.1983,9.24685 13.2934,9.29238 L15.4766,7.10927 C14.7536,6.59444 13.9117,6.23591 13,6.08296 Z M11,6.08296 C10.0884,6.2359 9.24641,6.59443 8.52348,7.10924 L10.7066,9.29236 C10.8017,9.24684 10.8996,9.20618 11,9.17071 L11,6.08296 Z" id="形状" fill="#09244B"></path>
            </g>
        </g>
    </g>
</svg>

<svg xmlns="http://www.w3.org/2000/svg" width="24" height="24"><g fill="none" fill-rule="evenodd"><path d="M24 0v24H0V0h24ZM12.594 23.258l-.012.002-.071.035-.02.004-.014-.004-.071-.036c-.01-.003-.019 0-.024.006l-.004.01-.017.428.005.02.01.013.104.074.015.004.012-.004.104-.074.012-.016.004-.017-.017-.427c-.002-.01-.009-.017-.016-.018Zm.264-.113-.014.002-.184.093-.01.01-.003.011.018.43.005.012.008.008.201.092c.012.004.023 0 .029-.008l.004-.014-.034-.614c-.003-.012-.01-.02-.02-.022Zm-.715.002a.023.023 0 0 0-.027.006l-.006.014-.034.614c0 .012.007.02.017.024l.015-.002.201-.093.01-.008.003-.011.018-.43-.003-.012-.01-.01-.184-.092Z"/><path fill="#09244B" d="M12 2a1 1 0 0 1 .993.883L13 3v1.062a7.957 7.957 0 0 1 3.646 1.425l.26.193.75-.751a1 1 0 0 1 1.498 1.32l-.083.094-.751.751a7.963 7.963 0 0 1 1.57 3.571l.048.335H21a1 1 0 0 1 .117 1.993L21 13h-1.062a7.956 7.956 0 0 1-1.425 3.646l-.193.26.751.75a1 1 0 0 1-1.32 1.498l-.094-.083-.751-.751a7.963 7.963 0 0 1-3.571 1.57l-.335.048V21a1 1 0 0 1-1.993.117L11 21v-1.062a7.956 7.956 0 0 1-3.646-1.425l-.26-.193-.75.751a1 1 0 0 1-1.498-1.32l.083-.094.751-.751a7.963 7.963 0 0 1-1.57-3.571L4.063 13H3a1 1 0 0 1-.117-1.993L3 11h1.062a7.956 7.956 0 0 1 1.425-3.646l.193-.26-.751-.75a1 1 0 0 1 1.32-1.498l.094.083.751.751a7.963 7.963 0 0 1 3.571-1.57L11 4.063V3a1 1 0 0 1 1-1Zm-1.293 12.708L8.523 16.89A5.968 5.968 0 0 0 11 17.917v-3.088a2.963 2.963 0 0 1-.293-.121Zm2.586 0-.144.064-.149.057v3.088a5.962 5.962 0 0 0 2.231-.86l.246-.166-2.184-2.183ZM9.171 13H6.083a5.968 5.968 0 0 0 1.026 2.477l2.183-2.184A2.972 2.972 0 0 1 9.171 13Zm8.746 0h-3.088c-.035.1-.076.198-.121.293l2.183 2.184A5.967 5.967 0 0 0 17.917 13Zm-1.026-4.477-2.183 2.184.064.144.057.149h3.088a5.963 5.963 0 0 0-.86-2.231l-.166-.246Zm-9.782 0A5.968 5.968 0 0 0 6.083 11h3.088c.035-.1.076-.198.121-.293L7.11 8.523ZM13 6.083v3.088c.1.035.198.076.293.121l2.184-2.183A5.968 5.968 0 0 0 13 6.083Zm-2 0a5.968 5.968 0 0 0-2.477 1.026l2.184 2.183c.095-.045.193-.086.293-.121V6.083Z"/></g></svg>
